X:989
T:Ray's Wedding
C:Joe Buchanan's Scottish Tome - Page 573.1
I:573 1
Z:Carl Allison
R:Waltz
L:1/4
M:3/4
K:A
e/ f/e/ c3/2 | B/ c/e/ A3/2| c/ e a f3/2 | a/ d/f/ e3/2 | A B/ c3/2 | B A/c/ e3/2 | f/e/ c/A/ B- | B3 | 
e/ f/e/ c3/2 | B c/e/ A3/2 | c/ e/a/ f3/2 | a/ d/f/ e3/2 | A B/ c3/2 | ^A B c | A3 :| 
G/A/ | B3/2G ((3E/G/B/) | c3/2 A ((3E/A/c/) | e3 | ^d c/ d/f/ | ^d3/2 e/ f/d/ | e ^d/ e/f/ | e3 | 
e/ f/e/ c3/2 | B c/e/ A3/2 | c/ e/a/ f3/2 | a/ d/f/ e3/2 | A B/ c3/2 | a/f/ e/c/ B | ^A B c | A3 :| 

